X: 73
T: After the Battle of Aughrim
B: begged borrowed and stolen
B: ralph
B: steve tunes
M:2/4
L:1/8
Q: 1/4=100
K:Adorian
V:1 
A/G/ |:  "Am"EA A/B/c/d/| ed cA| "G"BG G/F/G/A/| B2/A/G/ ED| "Am"EA A/G/A/B/| ee ag| "G"ed B/e/d/B/|1  "Am" A2 A A/G/:|2 "Am" A3 e||
|:"Am"a a/g/ e ((3e/f/g/)| a/b/a/g/ e ((3e/f/g/)| a {b}a/f/ "Em"g {a}g/e/| "G"d/e/d/B/ G2| "Am"a/b/a/g/ e ((3e/f/g/)| a/b/a/g/ e d| "Em"Be "G"dB|1 "Am" A3 e:|2  "Am"A3||
% abcbook-tune_id 627e2b1fbe61e3fb853276fe


% abcbook-boost 0
% abcbook-tablature 
% abcbook-transpose 
% abcbook-lastupdated 1666737315083
% abcbook-soundfonts 
% abcbook-repeats 3


